image/envelope (hover).svg

<svg width="16" height="12" viewBox="0 0 16 12" fill="none" xmlns="http://www.w3.org/2000/svg">
<mask id="path-1-inside-1" fill="white">
<path d="M14.5 0H1.50001C0.672854 0 0 0.628107 0 1.40026V9.80173C0 10.5739 0.672854 11.202 1.50001 11.202H14.5C15.3271 11.202 16 10.5739 16 9.80173V1.40026C16 0.628107 15.3271 0 14.5 0V0ZM14.5 0.933493C14.5679 0.933493 14.6325 0.94665 14.6916 0.969628L8 6.38361L1.30833 0.969628C1.36742 0.946681 1.43204 0.933493 1.49998 0.933493H14.5ZM14.5 10.2685H1.50001C1.22414 10.2685 0.999996 10.0593 0.999996 9.80169V1.95587L7.67236 7.35402C7.76661 7.43013 7.8833 7.46798 8 7.46798C8.1167 7.46798 8.23339 7.43016 8.32764 7.35402L15 1.95587V9.80173C15 10.0593 14.7759 10.2685 14.5 10.2685V10.2685Z"/>
</mask>
<path d="M14.5 0H1.50001C0.672854 0 0 0.628107 0 1.40026V9.80173C0 10.5739 0.672854 11.202 1.50001 11.202H14.5C15.3271 11.202 16 10.5739 16 9.80173V1.40026C16 0.628107 15.3271 0 14.5 0V0ZM14.5 0.933493C14.5679 0.933493 14.6325 0.94665 14.6916 0.969628L8 6.38361L1.30833 0.969628C1.36742 0.946681 1.43204 0.933493 1.49998 0.933493H14.5ZM14.5 10.2685H1.50001C1.22414 10.2685 0.999996 10.0593 0.999996 9.80169V1.95587L7.67236 7.35402C7.76661 7.43013 7.8833 7.46798 8 7.46798C8.1167 7.46798 8.23339 7.43016 8.32764 7.35402L15 1.95587V9.80173C15 10.0593 14.7759 10.2685 14.5 10.2685V10.2685Z" fill="#2196F3"/>
<path d="M14.6916 0.969628L15.3639 1.8005L16.7964 0.641465L15.079 -0.0264567L14.6916 0.969628ZM8 6.38361L7.32777 7.21449L8 7.75837L8.67224 7.21449L8 6.38361ZM1.30833 0.969628L0.9214 -0.0266342L-0.797224 0.640855L0.636101 1.80051L1.30833 0.969628ZM0.999996 1.95587L1.67221 1.12498L-0.0687683 -0.283526V1.95587H0.999996ZM7.67236 7.35402L7.00014 8.18491L7.00093 8.18555L7.67236 7.35402ZM8.32764 7.35402L8.99924 8.18542L8.99986 8.18491L8.32764 7.35402ZM15 1.95587H16.0688V-0.283526L14.3278 1.12498L15 1.95587ZM15 9.80173L16.0688 9.80186V9.80173H15ZM14.5 -1.06876H1.50001V1.06876H14.5V-1.06876ZM1.50001 -1.06876C0.153058 -1.06876 -1.06876 -0.030239 -1.06876 1.40026H1.06876C1.06876 1.28645 1.19265 1.06876 1.50001 1.06876V-1.06876ZM-1.06876 1.40026V9.80173H1.06876V1.40026H-1.06876ZM-1.06876 9.80173C-1.06876 11.2322 0.153058 12.2707 1.50001 12.2707V10.1332C1.19265 10.1332 1.06876 9.91553 1.06876 9.80173H-1.06876ZM1.50001 12.2707H14.5V10.1332H1.50001V12.2707ZM14.5 12.2707C15.8469 12.2707 17.0688 11.2322 17.0688 9.80173H14.9312C14.9312 9.91553 14.8074 10.1332 14.5 10.1332V12.2707ZM17.0688 9.80173V1.40026H14.9312V9.80173H17.0688ZM17.0688 1.40026C17.0688 -0.0302396 15.8469 -1.06876 14.5 -1.06876V1.06876C14.8074 1.06876 14.9312 1.28645 14.9312 1.40026H17.0688ZM14.5 2.00226C14.4289 2.00226 14.3624 1.98834 14.3042 1.96571L15.079 -0.0264567C14.9027 -0.0950385 14.707 -0.135271 14.5 -0.135271V2.00226ZM14.0194 0.138752L7.32776 5.55274L8.67224 7.21449L15.3639 1.8005L14.0194 0.138752ZM8.67223 5.55274L1.98057 0.13875L0.636101 1.80051L7.32777 7.21449L8.67223 5.55274ZM1.69527 1.96589C1.6377 1.98825 1.57143 2.00226 1.49998 2.00226V-0.135271C1.29266 -0.135271 1.09713 -0.0948848 0.9214 -0.0266342L1.69527 1.96589ZM1.49998 2.00226H14.5V-0.135271H1.49998V2.00226ZM14.5 9.19969H1.50001V11.3372H14.5V9.19969ZM1.50001 9.19969C1.74388 9.19969 2.06876 9.40086 2.06876 9.80169H-0.0687683C-0.0687683 10.7176 0.704386 11.3372 1.50001 11.3372V9.19969ZM2.06876 9.80169V1.95587H-0.0687683V9.80169H2.06876ZM0.327779 2.78677L7.00014 8.18491L8.34457 6.52313L1.67221 1.12498L0.327779 2.78677ZM7.00093 8.18555C7.29737 8.42492 7.65495 8.53674 8 8.53674V6.39921C8.11166 6.39921 8.23585 6.43534 8.34379 6.52249L7.00093 8.18555ZM8 8.53674C8.34487 8.53674 8.70258 8.42505 8.99924 8.18542L7.65605 6.52263C7.7642 6.43526 7.88852 6.39921 8 6.39921V8.53674ZM8.99986 8.18491L15.6722 2.78677L14.3278 1.12498L7.65543 6.52313L8.99986 8.18491ZM13.9312 1.95587V9.80173H16.0688V1.95587H13.9312ZM13.9312 9.80159C13.9313 9.40091 14.256 9.19969 14.5 9.19969V11.3372C15.2957 11.3372 16.0686 10.7176 16.0688 9.80186L13.9312 9.80159Z" fill="black" mask="url(#path-1-inside-1)"/>
</svg>

<svg width="16" height="12" fill="none" xmlns="http://www.w3.org/2000/svg"><mask id="a" fill="#fff"><path d="M14.5 0h-13C.673 0 0 .628 0 1.4v8.402c0 .772.673 1.4 1.5 1.4h13c.827 0 1.5-.628 1.5-1.4V1.4c0-.772-.673-1.4-1.5-1.4zm0 .933c.068 0 .133.014.192.037L8 6.384 1.308.97A.529.529 0 011.5.933h13zm0 9.335h-13c-.276 0-.5-.209-.5-.466V1.956l6.672 5.398A.52.52 0 008 7.468a.52.52 0 00.328-.114L15 1.956v7.846c0 .257-.224.466-.5.466z"/></mask><path d="M14.5 0h-13C.673 0 0 .628 0 1.4v8.402c0 .772.673 1.4 1.5 1.4h13c.827 0 1.5-.628 1.5-1.4V1.4c0-.772-.673-1.4-1.5-1.4zm0 .933c.068 0 .133.014.192.037L8 6.384 1.308.97A.529.529 0 011.5.933h13zm0 9.335h-13c-.276 0-.5-.209-.5-.466V1.956l6.672 5.398A.52.52 0 008 7.468a.52.52 0 00.328-.114L15 1.956v7.846c0 .257-.224.466-.5.466z" fill="#2196F3"/><path d="M14.692.97l.672.83L16.796.641 15.08-.026l-.387.996zM8 6.384l-.672.83.672.544.672-.544L8 6.384zM1.308.97L.921-.027-.797.641.636 1.8 1.308.97zM1 1.956l.672-.831-1.74-1.409v2.24H1zm6.672 5.398L7 8.184v.002l.672-.832zm.656 0l.671.831-.671-.831zM15 1.956h1.069v-2.24l-1.741 1.409.672.83zm0 7.846h1.069H15zm-.5-10.87h-13v2.137h13V-1.07zm-13 0C.153-1.069-1.069-.03-1.069 1.4H1.07c0-.114.124-.331.431-.331V-1.07zM-1.069 1.4v8.402H1.07V1.4H-1.07zm0 8.402c0 1.43 1.222 2.469 2.569 2.469v-2.138c-.307 0-.431-.217-.431-.331H-1.07zM1.5 12.27h13v-2.138h-13v2.138zm13 0c1.347 0 2.569-1.039 2.569-2.47H14.93c0 .115-.124.332-.431.332v2.138zm2.569-2.47v-8.4H14.93v8.4h2.138zm0-8.4c0-1.431-1.222-2.47-2.569-2.47V1.07c.307 0 .431.217.431.331h2.138zm-2.569.601a.541.541 0 01-.196-.036l.775-1.992a1.596 1.596 0 00-.579-.11v2.138zM14.02.14L7.327 5.553l1.344 1.661L15.364 1.8 14.019.14zM8.671 5.553L1.981.139.636 1.8l6.692 5.413 1.344-1.661zM1.695 1.966a.54.54 0 01-.195.036V-.135c-.207 0-.403.04-.579.108l.774 1.993zm-.195.036h13V-.135h-13v2.137zm13 7.198h-13v2.137h13V9.2zm-13 0c.244 0 .569.2.569.602H-.07c0 .916.773 1.535 1.569 1.535V9.2zm.569.602V1.956H-.07v7.846H2.07zM.328 2.787L7 8.185l1.345-1.662-6.673-5.398L.328 2.787zM7 8.186c.296.239.654.35.999.35V6.4c.112 0 .236.036.344.123L7 8.186zm.999.35a1.59 1.59 0 001-.35L7.655 6.522A.548.548 0 018 6.399v2.138zm1-.351l6.672-5.398-1.344-1.662-6.673 5.398L9 8.185zm4.931-6.23v7.847h2.138V1.956H13.93zm0 7.847c0-.401.325-.602.569-.602v2.137c.796 0 1.569-.62 1.569-1.535H13.93z" fill="#000" mask="url(#a)"/></svg>
